!!!SOCIAL_FUNCTION:	songs of the elk sociey (dream societies)
!!!PDT:	1918

Specific Region: Dakotas, Minnesota, Montana, Nebraska
!!!REG: Dakotas and Montana
!!!LING_GROUP: Siouan
!!!LANG: Tone
!!!OTL@ENG: Something Sacred I Wear
!!!ONM: No. 105
**kern
*Imale
*clefF4
*k[f#c#]
*M2/4
*MM76
4..e
16f#
=2
4f#
12f#
8f#
24f#
=3
4f#
8f#
8f#
=4
4.e
8d
=5
4d
12B
12B
12B
=6||
*M3/4
8d
[8d
4d]
8d
8d
=7||
*M2/4
2B
=8
8d
[8B
4B]
=9
2B
=10
16d
8.d
8B
8B
=11
16d
8.d
8e
8d
=12
4.B
8B
=13
(16B
8.F#)
12E
12E
12E
=14||
*M3/4
8F#
[8F#
4F#]
8F#
8F#
=15||
*M2/4
4.E
8F#
=16
(16E
8.D)
12BB
12BB
12BB
=17||
*M3/4
8D
[8D
4D]
8D
8D
=18||
*M2/4
2BB
=19
2BB
=20
2BB
=21
16d
8.d
8B
8B
=22
16d
8.d
8e
8d
=23
4.B
8B
=24
(16B
8.F#)
12E
12E
12E
=25||
*M3/4
8F#
[8F#
4F#]
8F#
8F#
=26||
*M2/4
4.E
8F#
=27
(16E
8.D)
12BB
12BB
12BB
=28||
*M3/4
8D
8D
4D
8D
8D
=29||
*M2/4
4.BB
8BB
=30
4.BB
8BB
=31
2BB
==
*-
!!!CNT: Native American -- Sioux
!!!MRD: 1911/07//-1914///
!!!OCL: Frances Densmore
!!!YOR1: Teton Sioux Music, Bulletin 61,
!!!YOR2: Bureau of American Ethnology, Smithsonian Institution
!!!PPR: Government Printing Office
!!!PPP: Washington, D.C.
!!!PDT: 1918///
!!!ENC: Craig Stuart Sapp
!!!END: 2002/03/25/
!!!EEV: 2002/03/31/
!!!AGN: Society Song/Song of the Elk Society
!!!MPN@@SIO: Shiya'ka
!!!MPN@ENG: Teal Duck
!!!TXO: Teton Sioux
!!!MLC: Standing Rock Reservation, South Dakota, United States of America
!!!ARL: 45.9/-100.7#
!!!catalog: Catalogue No. 471
!!!PPG: 295
!!!EFL: 105/245
!!!VTS: 2653876994
